X:96
T:Amhrán na Trá Báine
M:3/4
L:1/8
K:D
AB/c/|"D"d3 ef2|"G"ed3B2|"D"A4 B2|"Bm"AF3 DE|"G"F4E2|"G/A"D4 D2|"D"D4 A2|!
A4F2|"F#m"A3 Bd2|"Em"e3 de2|"F#m"f4 e2|"Bm"d4 A2|"G"B3 AF2|"A"A A2|!
"D"A4 F2|"F#m"A3 Bd2|"Em"e3 d e2|"D"f4 e2|"Bm"d4 A2|"G"B3 A F2|"D"A4 AB/c/|!
"Bm"d3 e f2|"G"ed3 B2|"D"A4 B2|"Bm"AF3 DE|"G"F4 E2|"G/A"D4 D2|"D"D4|]

